img/brands/Apple_iOS_logo.svg

<svg height="80" width="80" xmlns="http://www.w3.org/2000/svg"><path d="m78.4 10.65c-.75-1.975-2.55-4.75-5.1-6.725-1.5-1.125-3.2-2.225-5.6-2.925-2.6-.75-5.8-1-9.7-1h-36c-3.925 0-7.1.25-9.675 1.025-2.4.725-4.175 1.8-5.625 2.925-2.55 1.95-4.35 4.75-5.125 6.725-1.55 3.975-1.575 8.475-1.575 11.325v36c0 2.85.025 7.35 1.575 11.35.775 1.975 2.575 4.75 5.125 6.725 1.475 1.125 3.225 2.225 5.625 2.925 2.575.75 5.75 1 9.675 1h36c3.925 0 7.1-.25 9.675-1.025 2.4-.725 4.175-1.8 5.625-2.925 2.55-1.95 4.35-4.75 5.125-6.725 1.575-3.975 1.575-8.5 1.575-11.35v-36c0-2.85-.025-7.35-1.575-11.35zm-62.55 44.35h-2.975v-17.775h2.975zm-1.475-20.775c-1 0-1.85-.825-1.85-1.85s.825-1.85 1.85-1.85 1.875.825 1.875 1.85a1.884 1.884 0 0 1 -1.875 1.85zm17.875 21.225c-7.85 0-12.8-5.6-12.8-14.525s4.95-14.55 12.8-14.55 12.8 5.625 12.8 14.55-4.95 14.525-12.8 14.525zm25.9 0c-5.9 0-10.05-3.25-10.325-8.1h2.675c.3 3.375 3.475 5.675 7.9 5.675 4.225 0 7.25-2.3 7.25-5.475 0-2.625-1.825-4.2-6-5.25l-3.5-.9c-5.225-1.325-7.55-3.525-7.55-7.25 0-4.55 4.1-7.8 9.65-7.8 5.5 0 9.5 3.25 9.675 7.725h-2.675c-.25-3.175-3.075-5.3-7.075-5.3-3.9 0-6.8 2.175-6.8 5.275 0 2.425 1.75 3.85 5.9 4.9l3.05.775c5.675 1.425 8.05 3.6 8.05 7.525 0 4.95-3.975 8.2-10.225 8.2zm-15.825-14.525c0 7.375-3.9 12.05-10.075 12.05s-10.05-4.675-10.05-12.05c0-7.4 3.875-12.075 10.05-12.075s10.075 4.675 10.075 12.075z" fill="#464646"/></svg>

<svg width="80" height="80" xmlns="http://www.w3.org/2000/svg"><path d="M78.4 10.65c-.75-1.975-2.55-4.75-5.1-6.725C71.8 2.8 70.1 1.7 67.7 1 65.1.25 61.9 0 58 0H22c-3.925 0-7.1.25-9.675 1.025-2.4.725-4.175 1.8-5.625 2.925C4.15 5.9 2.35 8.7 1.575 10.675.025 14.65 0 19.15 0 22v36c0 2.85.025 7.35 1.575 11.35.775 1.975 2.575 4.75 5.125 6.725C8.175 77.2 9.925 78.3 12.325 79c2.575.75 5.75 1 9.675 1h36c3.925 0 7.1-.25 9.675-1.025 2.4-.725 4.175-1.8 5.625-2.925 2.55-1.95 4.35-4.75 5.125-6.725C80 65.35 80 60.825 80 57.975v-36c0-2.85-.025-7.35-1.575-11.35l-.025.025zM15.85 55h-2.975V37.225h2.975V55zm-1.475-20.775c-1 0-1.85-.825-1.85-1.85 0-1.025.825-1.85 1.85-1.85 1.025 0 1.875.825 1.875 1.85a1.884 1.884 0 0 1-1.875 1.85zM32.25 55.45c-7.85 0-12.8-5.6-12.8-14.525s4.95-14.55 12.8-14.55c7.85 0 12.8 5.625 12.8 14.55S40.1 55.45 32.25 55.45zm25.9 0c-5.9 0-10.05-3.25-10.325-8.1H50.5c.3 3.375 3.475 5.675 7.9 5.675 4.225 0 7.25-2.3 7.25-5.475 0-2.625-1.825-4.2-6-5.25l-3.5-.9c-5.225-1.325-7.55-3.525-7.55-7.25 0-4.55 4.1-7.8 9.65-7.8 5.5 0 9.5 3.25 9.675 7.725H65.25c-.25-3.175-3.075-5.3-7.075-5.3-3.9 0-6.8 2.175-6.8 5.275 0 2.425 1.75 3.85 5.9 4.9l3.05.775c5.675 1.425 8.05 3.6 8.05 7.525 0 4.95-3.975 8.2-10.225 8.2zM42.325 40.925c0 7.375-3.9 12.05-10.075 12.05-6.175 0-10.05-4.675-10.05-12.05 0-7.4 3.875-12.075 10.05-12.075 6.175 0 10.075 4.675 10.075 12.075z" fill="#464646"/></svg>
